X: 15242
T: Girl In The Green Shirt, The
R: reel
M: 4/4
K: Gmajor
|:FG~G2 AGFA|GBdg edef|~g3a gd(3Bcd|edBG AcBA|
FG~G2 AGFA|GBdg edef|~g3a gd(3Bcd|1 edBA ~G2BG:|2 edBA G3z||
|:~g3a gd(3Bcd|edBG AcBA|~g3a gd(3Bcd|eaag ~a3b|
~g3a gd(3Bcd|edBG AcBA|FG~G2 AGFA|1 GBdB G3z:|2 GBdB ~G2BG||

